src/assets/icons/app/back-android.svg

<?xml version="1.0" encoding="UTF-8"?>
<svg width="24px" height="24px" viewBox="0 0 24 24" version="1.1" xmlns="http://www.w3.org/2000/svg" xmlns:xlink="http://www.w3.org/1999/xlink">
    <title>system-icon01</title>
    <g id="system-icon01" stroke="none" stroke-width="1" fill="none" fill-rule="evenodd">
        <path d="M12.7095888,2.29469279 C13.0691554,2.65609185 13.0954431,3.22339156 12.789422,3.6149062 L12.7059943,3.70890179 L5.37578189,11 L22,11 C22.5522847,11 23,11.4477153 23,12 C23,12.5128358 22.6139598,12.9355072 22.1166211,12.9932723 L22,13 L5.44978189,13 L12.7713857,20.3581771 C13.1309569,20.7195716 13.1572519,21.2868709 12.8512359,21.6783895 L12.7678093,21.7723862 C12.4064149,22.1319573 11.8391155,22.1582523 11.4475969,21.8522363 L11.3536003,21.7688098 L1.58578189,11.9514623 L11.2953798,2.29109821 C11.6868955,1.9015678 12.3200584,1.90317715 12.7095888,2.29469279 Z" id="Combined-Shape" fill="currentColor" fill-rule="nonzero"></path>
    </g>
</svg>

<svg xmlns="http://www.w3.org/2000/svg" viewBox="0 0 24 24"><defs/><path fill="currentColor" fill-rule="nonzero" d="M12.71 2.3a1 1 0 01.08 1.31l-.08.1L5.38 11H22a1 1 0 01.12 2H5.45l7.32 7.36a1 1 0 01.08 1.32l-.08.1a1 1 0 01-1.32.07l-.1-.08-9.76-9.82 9.7-9.66a1 1 0 011.42 0z"/></svg>
